X:8006
T:Humours of Whiskey, The
R:SlipJig
C:Trad.
O:Ireland
M:9/8
L:1/8
Q:1/8=260
K:Bm
"Bm"gfe fBB fBB|gfe fBB "F#m"fga|"Bm"gfe fBB fBB|"D"agf efd "A"cBA:|:
"D"d2e fdf "A7"ecA|"D"dde fed "A7"gfe|"D"d2e fdf efg|"A7"agf efd cBA:|
